images/3233851.svg

<?xml version="1.0" encoding="UTF-8"?>
<svg xmlns="http://www.w3.org/2000/svg" xmlns:xlink="http://www.w3.org/1999/xlink" width="300pt" height="300pt" viewBox="0 0 300 300" version="1.1">
<defs>
<g>
<symbol overflow="visible" id="glyph0-0">
<path style="stroke:none;" d="M 0.453125 1.59375 L 0.453125 -6.34375 L 4.953125 -6.34375 L 4.953125 1.59375 Z M 0.953125 1.09375 L 4.453125 1.09375 L 4.453125 -5.84375 L 0.953125 -5.84375 Z M 0.953125 1.09375 "/>
</symbol>
<symbol overflow="visible" id="glyph0-1">
<path style="stroke:none;" d="M 0.890625 -6.5625 L 2.078125 -6.5625 L 4.984375 -1.078125 L 4.984375 -6.5625 L 5.84375 -6.5625 L 5.84375 0 L 4.65625 0 L 1.75 -5.484375 L 1.75 0 L 0.890625 0 Z M 0.890625 -6.5625 "/>
</symbol>
<symbol overflow="visible" id="glyph0-2">
<path style="stroke:none;" d="M 3.546875 -5.953125 C 2.898438 -5.953125 2.382812 -5.710938 2 -5.234375 C 1.625 -4.753906 1.4375 -4.101562 1.4375 -3.28125 C 1.4375 -2.445312 1.625 -1.789062 2 -1.3125 C 2.382812 -0.832031 2.898438 -0.59375 3.546875 -0.59375 C 4.191406 -0.59375 4.703125 -0.832031 5.078125 -1.3125 C 5.453125 -1.789062 5.640625 -2.445312 5.640625 -3.28125 C 5.640625 -4.101562 5.453125 -4.753906 5.078125 -5.234375 C 4.703125 -5.710938 4.191406 -5.953125 3.546875 -5.953125 Z M 3.546875 -6.6875 C 4.460938 -6.6875 5.195312 -6.375 5.75 -5.75 C 6.300781 -5.132812 6.578125 -4.3125 6.578125 -3.28125 C 6.578125 -2.238281 6.300781 -1.410156 5.75 -0.796875 C 5.195312 -0.179688 4.460938 0.125 3.546875 0.125 C 2.617188 0.125 1.878906 -0.179688 1.328125 -0.796875 C 0.773438 -1.410156 0.5 -2.238281 0.5 -3.28125 C 0.5 -4.3125 0.773438 -5.132812 1.328125 -5.75 C 1.878906 -6.375 2.617188 -6.6875 3.546875 -6.6875 Z M 3.546875 -6.6875 "/>
</symbol>
<symbol overflow="visible" id="glyph0-3">
<path style="stroke:none;" d="M 0.890625 -6.5625 L 1.765625 -6.5625 L 1.765625 -3.875 L 5 -3.875 L 5 -6.5625 L 5.890625 -6.5625 L 5.890625 0 L 5 0 L 5 -3.125 L 1.765625 -3.125 L 1.765625 0 L 0.890625 0 Z M 0.890625 -6.5625 "/>
</symbol>
</g>
</defs>
<g id="surface33017">
<rect x="0" y="0" width="300" height="300" style="fill:rgb(100%,100%,100%);fill-opacity:1;stroke:none;"/>
<path style="fill:none;stroke-width:1.2;stroke-linecap:butt;stroke-linejoin:miter;stroke:rgb(0%,0%,0%);stroke-opacity:1;stroke-miterlimit:10;" d="M 35.25 160.472656 L 42.945312 156.585938 "/>
<path style="fill:none;stroke-width:1.2;stroke-linecap:butt;stroke-linejoin:miter;stroke:rgb(0%,0%,100%);stroke-opacity:1;stroke-miterlimit:10;" d="M 42.945312 156.585938 L 50.644531 152.699219 "/>
<path style="fill:none;stroke-width:1.2;stroke-linecap:butt;stroke-linejoin:miter;stroke:rgb(0%,0%,100%);stroke-opacity:1;stroke-miterlimit:10;" d="M 50.644531 152.699219 L 51.125 144.089844 "/>
<path style="fill:none;stroke-width:1.2;stroke-linecap:butt;stroke-linejoin:miter;stroke:rgb(0%,0%,0%);stroke-opacity:1;stroke-miterlimit:10;" d="M 51.125 144.089844 L 51.609375 135.480469 "/>
<path style="fill:none;stroke-width:1.2;stroke-linecap:butt;stroke-linejoin:miter;stroke:rgb(0%,0%,100%);stroke-opacity:1;stroke-miterlimit:10;" d="M 50.644531 152.699219 L 57.859375 157.421875 "/>
<path style="fill:none;stroke-width:1.2;stroke-linecap:butt;stroke-linejoin:miter;stroke:rgb(0%,0%,0%);stroke-opacity:1;stroke-miterlimit:10;" d="M 57.859375 157.421875 L 65.074219 162.140625 "/>
<path style=" stroke:none;fill-rule:nonzero;fill:rgb(100%,100%,100%);fill-opacity:1;" d="M 47.644531 147.199219 L 54.644531 147.199219 L 54.644531 158.199219 L 47.644531 158.199219 Z M 47.644531 147.199219 "/>
<g style="fill:rgb(0%,0%,100%);fill-opacity:1;">
  <use xlink:href="#glyph0-1" x="47.644531" y="155.862305"/>
</g>
<path style="fill:none;stroke-width:1.2;stroke-linecap:butt;stroke-linejoin:miter;stroke:rgb(0%,0%,0%);stroke-opacity:1;stroke-miterlimit:10;" d="M 63.050781 162.027344 L 62.566406 170.636719 "/>
<path style="fill:none;stroke-width:1.2;stroke-linecap:butt;stroke-linejoin:miter;stroke:rgb(100%,0%,0%);stroke-opacity:1;stroke-miterlimit:10;" d="M 62.566406 170.636719 L 62.085938 179.25 "/>
<path style="fill:none;stroke-width:1.2;stroke-linecap:butt;stroke-linejoin:miter;stroke:rgb(0%,0%,0%);stroke-opacity:1;stroke-miterlimit:10;" d="M 67.101562 162.253906 L 66.617188 170.863281 "/>
<path style="fill:none;stroke-width:1.2;stroke-linecap:butt;stroke-linejoin:miter;stroke:rgb(100%,0%,0%);stroke-opacity:1;stroke-miterlimit:10;" d="M 66.617188 170.863281 L 66.136719 179.476562 "/>
<path style="fill:none;stroke-width:1.2;stroke-linecap:butt;stroke-linejoin:miter;stroke:rgb(0%,0%,0%);stroke-opacity:1;stroke-miterlimit:10;" d="M 65.074219 162.140625 L 80.46875 154.367188 "/>
<path style=" stroke:none;fill-rule:nonzero;fill:rgb(100%,100%,100%);fill-opacity:1;" d="M 60.113281 173.863281 L 68.113281 173.863281 L 68.113281 184.863281 L 60.113281 184.863281 Z M 60.113281 173.863281 "/>
<g style="fill:rgb(100%,0%,0%);fill-opacity:1;">
  <use xlink:href="#glyph0-2" x="60.113281" y="182.526367"/>
</g>
<path style="fill:none;stroke-width:1.2;stroke-linecap:butt;stroke-linejoin:miter;stroke:rgb(0%,0%,0%);stroke-opacity:1;stroke-miterlimit:10;" d="M 80.46875 154.367188 L 81.433594 137.148438 "/>
<path style="fill:none;stroke-width:1.2;stroke-linecap:butt;stroke-linejoin:miter;stroke:rgb(0%,0%,0%);stroke-opacity:1;stroke-miterlimit:10;" d="M 84.617188 152.871094 L 85.386719 139.097656 "/>
<path style="fill:none;stroke-width:1.2;stroke-linecap:butt;stroke-linejoin:miter;stroke:rgb(0%,0%,0%);stroke-opacity:1;stroke-miterlimit:10;" d="M 94.898438 163.8125 L 80.46875 154.367188 "/>
<path style="fill:none;stroke-width:1.2;stroke-linecap:butt;stroke-linejoin:miter;stroke:rgb(0%,0%,0%);stroke-opacity:1;stroke-miterlimit:10;" d="M 81.433594 137.148438 L 96.828125 129.371094 "/>
<path style="fill:none;stroke-width:1.2;stroke-linecap:butt;stroke-linejoin:miter;stroke:rgb(0%,0%,0%);stroke-opacity:1;stroke-miterlimit:10;" d="M 96.828125 129.371094 L 111.257812 138.816406 "/>
<path style="fill:none;stroke-width:1.2;stroke-linecap:butt;stroke-linejoin:miter;stroke:rgb(0%,0%,0%);stroke-opacity:1;stroke-miterlimit:10;" d="M 96.046875 133.710938 L 107.59375 141.265625 "/>
<path style="fill:none;stroke-width:1.2;stroke-linecap:butt;stroke-linejoin:miter;stroke:rgb(0%,0%,0%);stroke-opacity:1;stroke-miterlimit:10;" d="M 111.257812 138.816406 L 110.292969 156.035156 "/>
<path style="fill:none;stroke-width:1.2;stroke-linecap:butt;stroke-linejoin:miter;stroke:rgb(0%,0%,0%);stroke-opacity:1;stroke-miterlimit:10;" d="M 111.257812 138.816406 L 126.652344 131.039062 "/>
<path style="fill:none;stroke-width:1.2;stroke-linecap:butt;stroke-linejoin:miter;stroke:rgb(0%,0%,0%);stroke-opacity:1;stroke-miterlimit:10;" d="M 110.292969 156.035156 L 94.898438 163.8125 "/>
<path style="fill:none;stroke-width:1.2;stroke-linecap:butt;stroke-linejoin:miter;stroke:rgb(0%,0%,0%);stroke-opacity:1;stroke-miterlimit:10;" d="M 106.925781 153.191406 L 94.609375 159.410156 "/>
<path style="fill:none;stroke-width:1.2;stroke-linecap:butt;stroke-linejoin:miter;stroke:rgb(0%,0%,0%);stroke-opacity:1;stroke-miterlimit:10;" d="M 126.652344 131.039062 L 141.082031 140.484375 "/>
<path style="fill:none;stroke-width:1.2;stroke-linecap:butt;stroke-linejoin:miter;stroke:rgb(0%,0%,0%);stroke-opacity:1;stroke-miterlimit:10;" d="M 130.316406 128.589844 L 141.859375 136.144531 "/>
<path style="fill:none;stroke-width:1.2;stroke-linecap:butt;stroke-linejoin:miter;stroke:rgb(0%,0%,100%);stroke-opacity:1;stroke-miterlimit:10;" d="M 127.613281 113.820312 L 127.132812 122.429688 "/>
<path style="fill:none;stroke-width:1.2;stroke-linecap:butt;stroke-linejoin:miter;stroke:rgb(0%,0%,0%);stroke-opacity:1;stroke-miterlimit:10;" d="M 127.132812 122.429688 L 126.652344 131.039062 "/>
<path style="fill:none;stroke-width:1.2;stroke-linecap:butt;stroke-linejoin:miter;stroke:rgb(0%,0%,0%);stroke-opacity:1;stroke-miterlimit:10;" d="M 141.082031 140.484375 L 156.476562 132.710938 "/>
<path style="fill:none;stroke-width:1.2;stroke-linecap:butt;stroke-linejoin:miter;stroke:rgb(0%,0%,0%);stroke-opacity:1;stroke-miterlimit:10;" d="M 156.476562 132.710938 L 156.957031 124.101562 "/>
<path style="fill:none;stroke-width:1.2;stroke-linecap:butt;stroke-linejoin:miter;stroke:rgb(0%,0%,100%);stroke-opacity:1;stroke-miterlimit:10;" d="M 156.957031 124.101562 L 157.441406 115.488281 "/>
<path style="fill:none;stroke-width:1.2;stroke-linecap:butt;stroke-linejoin:miter;stroke:rgb(0%,0%,0%);stroke-opacity:1;stroke-miterlimit:10;" d="M 152.519531 130.761719 L 152.90625 123.875 "/>
<path style="fill:none;stroke-width:1.2;stroke-linecap:butt;stroke-linejoin:miter;stroke:rgb(0%,0%,100%);stroke-opacity:1;stroke-miterlimit:10;" d="M 152.90625 123.875 L 153.292969 116.984375 "/>
<path style="fill:none;stroke-width:1.2;stroke-linecap:butt;stroke-linejoin:miter;stroke:rgb(0%,0%,0%);stroke-opacity:1;stroke-miterlimit:10;" d="M 156.476562 132.710938 L 163.691406 137.429688 "/>
<path style="fill:none;stroke-width:1.2;stroke-linecap:butt;stroke-linejoin:miter;stroke:rgb(0%,0%,100%);stroke-opacity:1;stroke-miterlimit:10;" d="M 163.691406 137.429688 L 170.90625 142.152344 "/>
<path style="fill:none;stroke-width:1.2;stroke-linecap:butt;stroke-linejoin:miter;stroke:rgb(0%,0%,100%);stroke-opacity:1;stroke-miterlimit:10;" d="M 157.441406 115.488281 L 150.222656 110.769531 "/>
<path style="fill:none;stroke-width:1.2;stroke-linecap:butt;stroke-linejoin:miter;stroke:rgb(0%,0%,0%);stroke-opacity:1;stroke-miterlimit:10;" d="M 150.222656 110.769531 L 143.007812 106.046875 "/>
<path style=" stroke:none;fill-rule:nonzero;fill:rgb(100%,100%,100%);fill-opacity:1;" d="M 154.441406 109.988281 L 161.441406 109.988281 L 161.441406 120.988281 L 154.441406 120.988281 Z M 154.441406 109.988281 "/>
<g style="fill:rgb(0%,0%,100%);fill-opacity:1;">
  <use xlink:href="#glyph0-1" x="154.441406" y="118.651367"/>
</g>
<path style="fill:none;stroke-width:1.2;stroke-linecap:butt;stroke-linejoin:miter;stroke:rgb(0%,0%,0%);stroke-opacity:1;stroke-miterlimit:10;" d="M 143.007812 106.046875 L 135.3125 109.933594 "/>
<path style="fill:none;stroke-width:1.2;stroke-linecap:butt;stroke-linejoin:miter;stroke:rgb(0%,0%,100%);stroke-opacity:1;stroke-miterlimit:10;" d="M 135.3125 109.933594 L 127.613281 113.820312 "/>
<path style="fill:none;stroke-width:1.2;stroke-linecap:butt;stroke-linejoin:miter;stroke:rgb(0%,0%,0%);stroke-opacity:1;stroke-miterlimit:10;" d="M 143.300781 110.445312 L 137.140625 113.554688 "/>
<path style="fill:none;stroke-width:1.2;stroke-linecap:butt;stroke-linejoin:miter;stroke:rgb(0%,0%,100%);stroke-opacity:1;stroke-miterlimit:10;" d="M 137.140625 113.554688 L 130.984375 116.667969 "/>
<path style=" stroke:none;fill-rule:nonzero;fill:rgb(100%,100%,100%);fill-opacity:1;" d="M 124.613281 108.320312 L 131.613281 108.320312 L 131.613281 119.320312 L 124.613281 119.320312 Z M 124.613281 108.320312 "/>
<g style="fill:rgb(0%,0%,100%);fill-opacity:1;">
  <use xlink:href="#glyph0-1" x="124.613281" y="116.983398"/>
</g>
<path style="fill:none;stroke-width:1.2;stroke-linecap:butt;stroke-linejoin:miter;stroke:rgb(0%,0%,100%);stroke-opacity:1;stroke-miterlimit:10;" d="M 170.90625 142.152344 L 178.605469 138.265625 "/>
<path style="fill:none;stroke-width:1.2;stroke-linecap:butt;stroke-linejoin:miter;stroke:rgb(0%,0%,0%);stroke-opacity:1;stroke-miterlimit:10;" d="M 178.605469 138.265625 L 186.300781 134.378906 "/>
<path style=" stroke:none;fill-rule:nonzero;fill:rgb(100%,100%,100%);fill-opacity:1;" d="M 163.90625 136.652344 L 177.90625 136.652344 L 177.90625 147.652344 L 163.90625 147.652344 Z M 163.90625 136.652344 "/>
<g style="fill:rgb(0%,0%,100%);fill-opacity:1;">
  <use xlink:href="#glyph0-1" x="163.90625" y="145.31543"/>
  <use xlink:href="#glyph0-3" x="170.883789" y="145.31543"/>
</g>
<path style="fill:none;stroke-width:1.2;stroke-linecap:butt;stroke-linejoin:miter;stroke:rgb(0%,0%,0%);stroke-opacity:1;stroke-miterlimit:10;" d="M 186.300781 134.378906 L 200.730469 143.824219 "/>
<path style="fill:none;stroke-width:1.2;stroke-linecap:butt;stroke-linejoin:miter;stroke:rgb(0%,0%,0%);stroke-opacity:1;stroke-miterlimit:10;" d="M 200.730469 143.824219 L 216.125 136.046875 "/>
<path style="fill:none;stroke-width:1.2;stroke-linecap:butt;stroke-linejoin:miter;stroke:rgb(0%,0%,0%);stroke-opacity:1;stroke-miterlimit:10;" d="M 216.125 136.046875 L 218.882812 119.023438 "/>
<path style="fill:none;stroke-width:1.2;stroke-linecap:butt;stroke-linejoin:miter;stroke:rgb(0%,0%,0%);stroke-opacity:1;stroke-miterlimit:10;" d="M 220.40625 134.992188 L 222.613281 121.375 "/>
<path style="fill:none;stroke-width:1.2;stroke-linecap:butt;stroke-linejoin:miter;stroke:rgb(0%,0%,0%);stroke-opacity:1;stroke-miterlimit:10;" d="M 231.464844 143.929688 L 216.125 136.046875 "/>
<path style="fill:none;stroke-width:1.2;stroke-linecap:butt;stroke-linejoin:miter;stroke:rgb(0%,0%,0%);stroke-opacity:1;stroke-miterlimit:10;" d="M 218.882812 119.023438 L 227.40625 117.703125 "/>
<path style="fill:none;stroke-width:1.2;stroke-linecap:butt;stroke-linejoin:miter;stroke:rgb(0%,0%,100%);stroke-opacity:1;stroke-miterlimit:10;" d="M 227.40625 117.703125 L 235.925781 116.386719 "/>
<path style="fill:none;stroke-width:1.2;stroke-linecap:butt;stroke-linejoin:miter;stroke:rgb(0%,0%,100%);stroke-opacity:1;stroke-miterlimit:10;" d="M 235.925781 116.386719 L 239.816406 124.082031 "/>
<path style="fill:none;stroke-width:1.2;stroke-linecap:butt;stroke-linejoin:miter;stroke:rgb(0%,0%,0%);stroke-opacity:1;stroke-miterlimit:10;" d="M 239.816406 124.082031 L 243.703125 131.777344 "/>
<path style=" stroke:none;fill-rule:nonzero;fill:rgb(100%,100%,100%);fill-opacity:1;" d="M 228.925781 110.886719 L 242.925781 110.886719 L 242.925781 121.886719 L 228.925781 121.886719 Z M 228.925781 110.886719 "/>
<g style="fill:rgb(0%,0%,100%);fill-opacity:1;">
  <use xlink:href="#glyph0-1" x="228.925781" y="119.549805"/>
  <use xlink:href="#glyph0-3" x="235.90332" y="119.549805"/>
</g>
<path style="fill:none;stroke-width:1.2;stroke-linecap:butt;stroke-linejoin:miter;stroke:rgb(0%,0%,0%);stroke-opacity:1;stroke-miterlimit:10;" d="M 243.703125 131.777344 L 231.464844 143.929688 "/>
<path style="fill:none;stroke-width:1.2;stroke-linecap:butt;stroke-linejoin:miter;stroke:rgb(0%,0%,0%);stroke-opacity:1;stroke-miterlimit:10;" d="M 245.339844 135.875 L 235.546875 145.59375 "/>
<path style="fill:none;stroke-width:1.2;stroke-linecap:butt;stroke-linejoin:miter;stroke:rgb(0%,0%,0%);stroke-opacity:1;stroke-miterlimit:10;" d="M 260.34375 136.300781 L 243.703125 131.777344 "/>
<path style="fill:none;stroke-width:1.2;stroke-linecap:butt;stroke-linejoin:miter;stroke:rgb(0%,0%,0%);stroke-opacity:1;stroke-miterlimit:10;" d="M 231.464844 143.929688 L 235.871094 160.605469 "/>
<path style="fill:none;stroke-width:1.2;stroke-linecap:butt;stroke-linejoin:miter;stroke:rgb(0%,0%,0%);stroke-opacity:1;stroke-miterlimit:10;" d="M 235.871094 160.605469 L 252.511719 165.128906 "/>
<path style="fill:none;stroke-width:1.2;stroke-linecap:butt;stroke-linejoin:miter;stroke:rgb(0%,0%,0%);stroke-opacity:1;stroke-miterlimit:10;" d="M 238.597656 157.140625 L 251.910156 160.757812 "/>
<path style="fill:none;stroke-width:1.2;stroke-linecap:butt;stroke-linejoin:miter;stroke:rgb(0%,0%,0%);stroke-opacity:1;stroke-miterlimit:10;" d="M 252.511719 165.128906 L 264.75 152.976562 "/>
<path style="fill:none;stroke-width:1.2;stroke-linecap:butt;stroke-linejoin:miter;stroke:rgb(0%,0%,0%);stroke-opacity:1;stroke-miterlimit:10;" d="M 252.511719 165.128906 L 254.714844 173.464844 "/>
<path style="fill:none;stroke-width:1.2;stroke-linecap:butt;stroke-linejoin:miter;stroke:rgb(100%,0%,0%);stroke-opacity:1;stroke-miterlimit:10;" d="M 254.714844 173.464844 L 256.917969 181.800781 "/>
<path style="fill:none;stroke-width:1.2;stroke-linecap:butt;stroke-linejoin:miter;stroke:rgb(0%,0%,0%);stroke-opacity:1;stroke-miterlimit:10;" d="M 264.75 152.976562 L 260.34375 136.300781 "/>
<path style="fill:none;stroke-width:1.2;stroke-linecap:butt;stroke-linejoin:miter;stroke:rgb(0%,0%,0%);stroke-opacity:1;stroke-miterlimit:10;" d="M 260.386719 152.34375 L 256.863281 139.003906 "/>
<path style="fill:none;stroke-width:1.2;stroke-linecap:butt;stroke-linejoin:miter;stroke:rgb(100%,0%,0%);stroke-opacity:1;stroke-miterlimit:10;" d="M 256.917969 181.800781 L 250.796875 187.878906 "/>
<path style="fill:none;stroke-width:1.2;stroke-linecap:butt;stroke-linejoin:miter;stroke:rgb(0%,0%,0%);stroke-opacity:1;stroke-miterlimit:10;" d="M 250.796875 187.878906 L 244.679688 193.953125 "/>
<path style=" stroke:none;fill-rule:nonzero;fill:rgb(100%,100%,100%);fill-opacity:1;" d="M 252.917969 176.300781 L 260.917969 176.300781 L 260.917969 187.300781 L 252.917969 187.300781 Z M 252.917969 176.300781 "/>
<g style="fill:rgb(100%,0%,0%);fill-opacity:1;">
  <use xlink:href="#glyph0-2" x="252.917969" y="184.963867"/>
</g>
</g>
</svg>

<svg xmlns="http://www.w3.org/2000/svg" xmlns:xlink="http://www.w3.org/1999/xlink" width="300pt" height="300pt" viewBox="0 0 300 300"><defs><symbol overflow="visible"><path d="M.453 1.594v-7.938h4.5v7.938zm.5-.5h3.5v-6.938h-3.5zm0 0"/></symbol><symbol overflow="visible" id="a"><path d="M.89-6.563H2.08l2.906 5.485v-5.484h.86V0H4.656L1.75-5.484V0H.89zm0 0"/></symbol><symbol overflow="visible" id="b"><path d="M3.547-5.953c-.65 0-1.164.242-1.547.72-.375.48-.563 1.13-.563 1.952 0 .835.188 1.49.563 1.967.383.48.898.72 1.547.72.644 0 1.156-.24 1.53-.72.376-.476.564-1.132.564-1.968 0-.822-.187-1.474-.562-1.954-.375-.477-.887-.72-1.53-.72zm0-.734c.914 0 1.648.312 2.203.937.55.617.828 1.438.828 2.47 0 1.042-.277 1.87-.828 2.483-.555.617-1.29.922-2.203.922-.93 0-1.668-.305-2.22-.922C.774-1.41.5-2.237.5-3.28c0-1.033.273-1.853.828-2.47.55-.625 1.29-.938 2.22-.938zm0 0"/></symbol><symbol overflow="visible" id="c"><path d="M.89-6.563h.876v2.688H5v-2.688h.89V0H5v-3.125H1.766V0H.89zm0 0"/></symbol></defs><g><path fill="#fff" d="M0 0h300v300H0z"/><path d="M35.25 160.473l7.695-3.887" stroke-width="1.2" stroke="#000" stroke-miterlimit="10" fill="none"/><path d="M42.945 156.586l7.7-3.887M50.645 152.7l.48-8.61" stroke-width="1.2" stroke="#00f" stroke-miterlimit="10" fill="none"/><path d="M51.125 144.09l.484-8.61" stroke-width="1.2" stroke="#000" stroke-miterlimit="10" fill="none"/><path d="M50.645 152.7l7.214 4.722" stroke-width="1.2" stroke="#00f" stroke-miterlimit="10" fill="none"/><path d="M57.86 157.422l7.214 4.72" stroke-width="1.2" stroke="#000" stroke-miterlimit="10" fill="none"/><path d="M47.645 147.2h7v11h-7zm0 0" fill="#fff"/><use xlink:href="#a" x="47.645" y="155.862" fill="#00f"/><path d="M63.05 162.027l-.484 8.61" stroke-width="1.2" stroke="#000" stroke-miterlimit="10" fill="none"/><path d="M62.566 170.637l-.48 8.613" stroke-width="1.2" stroke="#f00" stroke-miterlimit="10" fill="none"/><path d="M67.102 162.254l-.485 8.61" stroke-width="1.2" stroke="#000" stroke-miterlimit="10" fill="none"/><path d="M66.617 170.863l-.48 8.614" stroke-width="1.2" stroke="#f00" stroke-miterlimit="10" fill="none"/><path d="M65.074 162.14l15.395-7.773" stroke-width="1.2" stroke="#000" stroke-miterlimit="10" fill="none"/><path d="M60.113 173.863h8v11h-8zm0 0" fill="#fff"/><use xlink:href="#b" x="60.113" y="182.526" fill="#f00"/><path d="M80.47 154.367l.964-17.22M84.617 152.87l.77-13.772M94.898 163.813l-14.43-9.446M81.434 137.148l15.394-7.777M96.828 129.37l14.43 9.446M96.047 133.71l11.547 7.556M111.258 138.816l-.965 17.22M111.258 138.816l15.394-7.777M110.293 156.035l-15.395 7.778M106.926 153.19l-12.317 6.22M126.652 131.04l14.43 9.444M130.316 128.59l11.543 7.555" stroke-width="1.2" stroke="#000" stroke-miterlimit="10" fill="none"/><path d="M127.613 113.82l-.48 8.61" stroke-width="1.2" stroke="#00f" stroke-miterlimit="10" fill="none"/><path d="M127.133 122.43l-.48 8.61M141.082 140.484l15.395-7.773M156.477 132.71l.48-8.608" stroke-width="1.2" stroke="#000" stroke-miterlimit="10" fill="none"/><path d="M156.957 124.102l.484-8.614" stroke-width="1.2" stroke="#00f" stroke-miterlimit="10" fill="none"/><path d="M152.52 130.762l.386-6.887" stroke-width="1.2" stroke="#000" stroke-miterlimit="10" fill="none"/><path d="M152.906 123.875l.387-6.89" stroke-width="1.2" stroke="#00f" stroke-miterlimit="10" fill="none"/><path d="M156.477 132.71l7.214 4.72" stroke-width="1.2" stroke="#000" stroke-miterlimit="10" fill="none"/><path d="M163.69 137.43l7.216 4.722M157.44 115.488l-7.217-4.718" stroke-width="1.2" stroke="#00f" stroke-miterlimit="10" fill="none"/><path d="M150.223 110.77l-7.215-4.723" stroke-width="1.2" stroke="#000" stroke-miterlimit="10" fill="none"/><path d="M154.44 109.988h7v11h-7zm0 0" fill="#fff"/><use xlink:href="#a" x="154.441" y="118.651" fill="#00f"/><path d="M143.008 106.047l-7.696 3.887" stroke-width="1.2" stroke="#000" stroke-miterlimit="10" fill="none"/><path d="M135.313 109.934l-7.7 3.886" stroke-width="1.2" stroke="#00f" stroke-miterlimit="10" fill="none"/><path d="M143.3 110.445l-6.16 3.11" stroke-width="1.2" stroke="#000" stroke-miterlimit="10" fill="none"/><path d="M137.14 113.555l-6.156 3.113" stroke-width="1.2" stroke="#00f" stroke-miterlimit="10" fill="none"/><path d="M124.613 108.32h7v11h-7zm0 0" fill="#fff"/><use xlink:href="#a" x="124.613" y="116.983" fill="#00f"/><path d="M170.906 142.152l7.7-3.886" stroke-width="1.2" stroke="#00f" stroke-miterlimit="10" fill="none"/><path d="M178.605 138.266l7.696-3.887" stroke-width="1.2" stroke="#000" stroke-miterlimit="10" fill="none"/><path d="M163.906 136.652h14v11h-14zm0 0" fill="#fff"/><g fill="#00f"><use xlink:href="#a" x="163.906" y="145.315"/><use xlink:href="#c" x="170.884" y="145.315"/></g><path d="M186.3 134.38l14.43 9.444M200.73 143.824l15.395-7.777M216.125 136.047l2.758-17.024M220.406 134.992l2.207-13.617M231.465 143.93l-15.34-7.883M218.883 119.023l8.523-1.32" stroke-width="1.2" stroke="#000" stroke-miterlimit="10" fill="none"/><path d="M227.406 117.703l8.52-1.316M235.926 116.387l3.89 7.695" stroke-width="1.2" stroke="#00f" stroke-miterlimit="10" fill="none"/><path d="M239.816 124.082l3.887 7.695" stroke-width="1.2" stroke="#000" stroke-miterlimit="10" fill="none"/><path d="M228.926 110.887h14v11h-14zm0 0" fill="#fff"/><g fill="#00f"><use xlink:href="#a" x="228.926" y="119.55"/><use xlink:href="#c" x="235.903" y="119.55"/></g><path d="M243.703 131.777l-12.238 12.153M245.34 135.875l-9.793 9.72M260.344 136.3l-16.64-4.523M231.465 143.93l4.406 16.675M235.87 160.605l16.642 4.524M238.598 157.14l13.312 3.618M252.512 165.13l12.238-12.153M252.512 165.13l2.203 8.335" stroke-width="1.2" stroke="#000" stroke-miterlimit="10" fill="none"/><path d="M254.715 173.465l2.203 8.336" stroke-width="1.2" stroke="#f00" stroke-miterlimit="10" fill="none"/><path d="M264.75 152.977l-4.406-16.676M260.387 152.344l-3.524-13.34" stroke-width="1.2" stroke="#000" stroke-miterlimit="10" fill="none"/><path d="M256.918 181.8l-6.12 6.08" stroke-width="1.2" stroke="#f00" stroke-miterlimit="10" fill="none"/><path d="M250.797 187.88l-6.117 6.073" stroke-width="1.2" stroke="#000" stroke-miterlimit="10" fill="none"/><path d="M252.918 176.3h8v11h-8zm0 0" fill="#fff"/><use xlink:href="#b" x="252.918" y="184.964" fill="#f00"/></g></svg>
